X:1
T:reel du Brae
C:trad
S:multizic <multizic:wanadoo.fr> QueTrad 2001-10-15
R:Reel
M:4/4
K:Am
A,B, CD EA, A,G, |A,B, CD EG DB, |G,A, B,C DB, B,A, |D3/4E/^F3/4 GA BG A2 |
A,B, CD EA, A,G, |A,B, CD EG DB, |G,A, B,C DE DC |B,A, G,B, A,4 |
A,B, CD EA, A,G, |A,B, CD EG DB, |G,A, B,C DB, B,A, |D3/4E/^F3/4 GA BG A2 |
A,B, CD EA, A,G, |A,B, CD EG DB, |G,A, B,C D^F A^c |BA ^GB A4 |
Aa ab ag gg |bg ag a3/4g/e3/4 de |gg eg de gd |eg ed BA AG |
Aa ab ag gg |bg ag a3/4g/e3/4 de |ga ge dB GB |c3/4B/A3/4 BG A4 |
Aa ab ag gg |bg ag a3/4g/e3/4 de |gg eg de gd |eg ed BA AG |
Aa ab ag gg |bg ag a3/4g/e3/4 de |ga ge dB GB |c3/4B/A3/4 BG A4 |]
     %End of file
